X: 41897
T: Wackidoo
R: reel
M: 4/4
K: Ddorian
A,2DEF2ED|CDEGA2FA|d2Ae BGED|FAcA GEDC|
A,2DEF2ED|CDEGA2FA|d2Ae BGDC|A,CECD4:|
|:d4a4-|a2geg2f2|defde2c2|BcdB cBAc|edBd cBAG|
A4A2E2|FEFGA2E2|FEFGA2E2|FEFG AGEC|A,CECD4:|

